!!!OTL: DER WINTER IST EIN RECHTER MANN
!!!ARE: Europa, Mitteleuropa, Deutschland
!!!SCT: B0220
!!!YEM: Copyright 1995, estate of Helmut Schaffrath.
**kern
*ICvox
*Ivox
*M4/4
*k[b-e-]
*B-:
{4f
=1
4b-
4b-
4b-
8a
8b-
=2
4cc
4cc
4cc}
{4b-
=3
4a
4cc
4ff
4ee-
=4
4dd
4cc
4b-}
{4f
=5
4dd
8dd
8cc
4b-
4b-
=6
4ee-
8ee-
8dd
4cc}
{4cc
=7
4ff
4b-
4a
4b-
=8
2dd
2cc
=9
2b-
4r}
==
!!!AGN: Jahreszeiten - Lied, Winter
!!!ONB: ESAC (Essen Associative Code) Database: BOEHME
!!!AMT: simple quadruple
!!!AIN: vox
!!!EED: Helmut Schaffrath
!!!EEV: 1.0
*-
